pages/case-study/auth0/assets/auth0.svg

<svg fill="none" height="151" viewBox="0 0 137 151" width="137" xmlns="http://www.w3.org/2000/svg"><path clip-rule="evenodd" d="m108.765 122.156-15.3754-46.6583 40.2484-28.8282h-49.7512l-15.3766-46.6560057-.0046-.01259469h49.7594l15.38 46.66410039.001-.0009.012-.0072c8.932 27.0713-.267 57.8621-24.893 75.4991zm-80.5137 0-.0127.009 40.2588 28.835 40.2676-28.844-40.2548-28.8359zm-24.88309-75.4982c-9.40245 28.5368 1.51203 58.7752 24.87489 75.5032l.0037-.014 15.3775-46.6556-40.23966-28.8228h49.73976l15.3775-46.6560054.0037-.0125946h-49.7617z" fill="#000" fill-rule="evenodd"/></svg>

<svg width="137" height="151" viewBox="0 0 137 151" fill="none" xmlns="http://www.w3.org/2000/svg"><path fill-rule="evenodd" clip-rule="evenodd" d="M108.765 122.156 93.3896 75.4977 133.638 46.6695H83.8868L68.5102.0134943 68.5056 899614e-9H118.265L133.645 46.665 133.646 46.6641 133.658 46.6569C142.59 73.7282 133.391 104.519 108.765 122.156zm-80.5137.0L28.2386 122.165 68.4974 151 108.765 122.156 68.5102 93.3201 28.2513 122.156zM3.36821 46.6578C-6.03424 75.1946 4.88024 105.433 28.2431 122.161L28.2468 122.147 43.6243 75.4914 3.38464 46.6686H53.1244L68.5019.0125946 68.5056.0H18.7439L3.36821 46.6578z" fill="#eb5424"/></svg>
